X: 23289
T: Leaving Uist
R: waltz
M: 3/4
K: Eminor
eed|:B3A AG|AA GE3|DE GA3|cB2de2|ed eg3|
aa ge dB|B2GA3|1 BA G (E3|E3)eed:|2 Bd eA3||
|:aa a4|ga ba ge|eBd3e|g2g2a|
ag de ga|ed AB de|AG EG3|BA G (E3|E3):|

